X: 1
T: Seneca Square Dance
M: C|
Z: 2016 John Chambers <jc:trillian.mit.edu>
N: Simplified form from various transcriptions
L: 1/8
K: G
DG |\
"G"B4 B3B | d2B2- B4 | "Em"B4 d3B | A2G2- "(D7)"G2A2 |\
"G"B4 B3B | d2B2- B2{A}G2 | "C"ABAG "D7"E2F2 | "G"G6 :|
|: Bd |\
"G"g4 g3e | d2B2- B4 | "G"g4 g3a | "Em" b2e2- e2f2 |\
"C"gaba g2{f}e2 | "G"d2B2- B2{A}G2 | "C"ABAG "D7"E2F2 | "G"G4 :|

%%sep 1 1 500

